X:327
T: KOMPT HER IHR LIEBEN SCHWESTERLEIN
N: E0940
O: Europa, Mitteleuropa, Deutschland
R: Tanz - Lied, Reigen, geistlich; Abend
M: 4/4
L: 1/8
K: F
F2 | c2c2c2c2 | d2cBA2
A2 | B2c2d2d2 | c4z2
c2 | c2c2c2A2 | c2BAG2
c2 | A2GFG2G2 | F4
A4 | c2BAG2G2 | F6

@@@ Tune index: 4640
